img/stops-3.svg

<svg width="50" height="29" viewBox="0 0 50 29" fill="none" xmlns="http://www.w3.org/2000/svg">
<path d="M11.8442 0.5H1.49502C0.669336 0.5 0 1.18912 0 2.03931V22.5618C0 23.4121 0.669336 24.1013 1.49502 24.1013H7.47666C7.4733 24.0284 7.47151 23.9556 7.47129 23.8827C7.47129 21.3324 9.4792 19.2652 11.9562 19.2652C14.4331 19.2652 16.441 21.3324 16.441 23.8827C16.441 23.956 16.4389 24.0286 16.4356 24.1013H34.6494C34.646 24.0285 34.6441 23.9556 34.6439 23.8827C34.6439 21.3324 36.6519 19.2652 39.1287 19.2652C41.6058 19.2652 43.6137 21.3324 43.6137 23.8827C43.6137 23.956 43.6115 24.0286 43.6083 24.1013H48.5047C49.3304 24.1013 49.9997 23.4121 49.9997 22.5618V5.89974C49.9984 2.91714 47.6498 0.5001 44.7527 0.5001H14.5616" fill="#E30613"/>
<path d="M11.8442 0.5H1.49502C0.669336 0.5 0 1.18912 0 2.03931V22.5618C0 23.4121 0.669336 24.1013 1.49502 24.1013H7.47666C7.4733 24.0284 7.47151 23.9556 7.47129 23.8827C7.47129 21.3324 9.4792 19.2652 11.9562 19.2652C14.4331 19.2652 16.441 21.3324 16.441 23.8827C16.441 23.956 16.4389 24.0286 16.4356 24.1013H34.6494C34.646 24.0285 34.6441 23.9556 34.6439 23.8827C34.6439 21.3324 36.6519 19.2652 39.1287 19.2652C41.6058 19.2652 43.6137 21.3324 43.6137 23.8827C43.6137 23.956 43.6115 24.0286 43.6083 24.1013H48.5047C49.3304 24.1013 49.9997 23.4121 49.9997 22.5618V5.89974C49.9984 2.91714 47.6498 0.5001 44.7527 0.5001H14.5616" fill="#E30613"/>
<path d="M19.3934 4.34802H31.7684V24.1009H19.3934V4.34802Z" fill="#97D3EE"/>
<path d="M19.3934 4.34802H25.5811V24.1009H19.3934V4.34802Z" fill="#6CC6E4"/>
<path d="M39.1293 28.4999C41.6062 28.4999 43.6141 26.4326 43.6141 23.8826C43.6141 21.3325 41.6062 19.2653 39.1293 19.2653C36.6524 19.2653 34.6445 21.3325 34.6445 23.8826C34.6445 26.4326 36.6524 28.4999 39.1293 28.4999Z" fill="#444444"/>
<path d="M11.9564 28.4999C14.4333 28.4999 16.4412 26.4326 16.4412 23.8826C16.4412 21.3325 14.4333 19.2653 11.9564 19.2653C9.47958 19.2653 7.47168 21.3325 7.47168 23.8826C7.47168 26.4326 9.47958 28.4999 11.9564 28.4999Z" fill="#444444"/>
<path d="M39.1293 25.4684C39.9801 25.4684 40.6697 24.7584 40.6697 23.8825C40.6697 23.0066 39.9801 22.2965 39.1293 22.2965C38.2785 22.2965 37.5889 23.0066 37.5889 23.8825C37.5889 24.7584 38.2785 25.4684 39.1293 25.4684Z" fill="#F5F7FA"/>
<path d="M11.9565 25.4682C12.8072 25.4682 13.4968 24.7582 13.4968 23.8824C13.4968 23.0065 12.8072 22.2965 11.9565 22.2965C11.1058 22.2965 10.4161 23.0065 10.4161 23.8824C10.4161 24.7582 11.1058 25.4682 11.9565 25.4682Z" fill="#F5F7FA"/>
<path d="M19.3934 15.1011H31.7684V24.1007H19.3934V15.1011Z" fill="#A52727"/>
<path d="M19.3934 15.1011H25.581V24.1007H19.3934V15.1011Z" fill="#A52727"/>
<path d="M44.1269 15.101H50V5.51489H39.1289V15.101H41.4095" fill="#97D3EE"/>
<path d="M31.7686 5.51489H39.1283V15.1009H31.7686V5.51489Z" fill="#6CC6E4"/>
<path d="M11.9565 5.51489H19.3163V15.1009H11.9565V5.51489Z" fill="#97D3EE"/>
<path d="M0 20.8948V17.7772H1.57959C2.41592 17.7772 3.09385 18.4751 3.09385 19.3361C3.09385 20.1971 2.41602 20.895 1.57959 20.895H0V20.8948Z" fill="#A52727"/>
<path d="M32.5842 24.1007V15.1007C32.5842 14.8781 32.4983 14.6646 32.3454 14.5072C32.1925 14.3498 31.9852 14.2614 31.769 14.2614H19.3936C19.1774 14.2614 18.9701 14.3498 18.8172 14.5072C18.6643 14.6646 18.5784 14.8781 18.5784 15.1007V24.1009H20.2088V15.94H30.9539V24.1009H32.5842V24.1007Z" fill="#A52727"/>
<path d="M25.5815 15.9399C25.3653 15.9399 25.1579 15.8515 25.005 15.694C24.8521 15.5366 24.7662 15.3232 24.7662 15.1006V4.34763C24.7662 4.12503 24.8521 3.91154 25.005 3.75413C25.1579 3.59673 25.3653 3.5083 25.5815 3.5083C25.7977 3.5083 26.005 3.59673 26.1579 3.75413C26.3108 3.91154 26.3967 4.12503 26.3967 4.34763V15.1006C26.3967 15.3232 26.3108 15.5366 26.1579 15.694C26.005 15.8514 25.7977 15.9399 25.5815 15.9399Z" fill="#A52727"/>
<path d="M50 20.8948V17.7772H47.6728C46.8366 17.7772 46.1586 18.4751 46.1586 19.3361C46.1586 20.1971 46.8365 20.895 47.6728 20.895H50V20.8948Z" fill="#A52727"/>
<path d="M32.5842 24.1007V4.34763C32.5842 4.12503 32.4983 3.91156 32.3454 3.75416C32.1925 3.59676 31.9852 3.50833 31.769 3.5083H19.3936C19.1774 3.50833 18.9701 3.59676 18.8172 3.75416C18.6643 3.91156 18.5784 4.12503 18.5784 4.34763V24.1007H20.2088V5.18696H30.9539V24.1008H32.5842V24.1007Z" fill="#A52727"/>
<path d="M5.90022 5.51489C5.17981 5.51489 4.59583 6.11604 4.59583 6.85784V13.7582C4.59583 14.4998 5.17971 15.1011 5.90022 15.1011H11.9561V5.51499L5.90022 5.51489Z" fill="#6CC6E4"/>
</svg>

<svg xmlns="http://www.w3.org/2000/svg" width="50" height="29" fill="none"><path fill="#E30613" d="M11.844.5H1.495C.669.5 0 1.19 0 2.04v20.522c0 .85.67 1.54 1.495 1.54h5.982a5.078 5.078 0 0 1-.006-.22c0-2.55 2.008-4.617 4.485-4.617 2.477 0 4.485 2.067 4.485 4.618 0 .073-.002.146-.005.218h18.213a4.98 4.98 0 0 1-.005-.218c0-2.55 2.008-4.618 4.485-4.618 2.477 0 4.485 2.067 4.485 4.618 0 .073-.002.146-.006.218h4.897c.825 0 1.495-.689 1.495-1.54V5.9C49.998 2.917 47.65.5 44.753.5H14.562"/><path fill="#E30613" d="M11.844.5H1.495C.669.5 0 1.19 0 2.04v20.522c0 .85.67 1.54 1.495 1.54h5.982a5.078 5.078 0 0 1-.006-.22c0-2.55 2.008-4.617 4.485-4.617 2.477 0 4.485 2.067 4.485 4.618 0 .073-.002.146-.005.218h18.213a4.98 4.98 0 0 1-.005-.218c0-2.55 2.008-4.618 4.485-4.618 2.477 0 4.485 2.067 4.485 4.618 0 .073-.002.146-.006.218h4.897c.825 0 1.495-.689 1.495-1.54V5.9C49.998 2.917 47.65.5 44.753.5H14.562"/><path fill="#97D3EE" d="M19.393 4.348h12.375v19.753H19.393V4.348Z"/><path fill="#6CC6E4" d="M19.393 4.348h6.188v19.753h-6.188V4.348Z"/><path fill="#444" d="M39.13 28.5c2.476 0 4.484-2.067 4.484-4.617s-2.008-4.618-4.485-4.618c-2.477 0-4.484 2.067-4.484 4.618 0 2.55 2.007 4.617 4.484 4.617ZM11.956 28.5c2.477 0 4.485-2.067 4.485-4.617s-2.008-4.618-4.485-4.618c-2.476 0-4.484 2.067-4.484 4.618 0 2.55 2.008 4.617 4.484 4.617Z"/><path fill="#F5F7FA" d="M39.13 25.468c.85 0 1.54-.71 1.54-1.585 0-.876-.69-1.586-1.54-1.586-.852 0-1.541.71-1.541 1.585 0 .876.69 1.586 1.54 1.586ZM11.957 25.468c.85 0 1.54-.71 1.54-1.586 0-.876-.69-1.585-1.54-1.585-.851 0-1.54.71-1.54 1.585 0 .876.689 1.586 1.54 1.586Z"/><path fill="#A52727" d="M19.393 15.101h12.375v9H19.393v-9Z"/><path fill="#A52727" d="M19.393 15.101h6.188v9h-6.188v-9Z"/><path fill="#97D3EE" d="M44.127 15.101H50V5.515H39.129V15.1h2.28"/><path fill="#6CC6E4" d="M31.769 5.515h7.36V15.1h-7.36V5.515Z"/><path fill="#97D3EE" d="M11.957 5.515h7.36V15.1h-7.36V5.515Z"/><path fill="#A52727" d="M0 20.895v-3.118h1.58c.836 0 1.514.698 1.514 1.56 0 .86-.678 1.558-1.514 1.558H0ZM32.584 24.1v-9a.852.852 0 0 0-.239-.593.803.803 0 0 0-.576-.246H19.394a.803.803 0 0 0-.577.246.852.852 0 0 0-.239.594v9h1.63V15.94h10.746v8.16h1.63Z"/><path fill="#A52727" d="M25.581 15.94a.803.803 0 0 1-.576-.246.852.852 0 0 1-.239-.593V4.348c0-.223.086-.436.239-.594a.804.804 0 0 1 .576-.246c.217 0 .424.089.577.246.153.158.239.371.239.594V15.1a.852.852 0 0 1-.24.593.804.804 0 0 1-.576.246ZM50 20.895v-3.118h-2.327c-.836 0-1.514.698-1.514 1.56 0 .86.678 1.558 1.514 1.558H50Z"/><path fill="#A52727" d="M32.584 24.1V4.349a.852.852 0 0 0-.239-.594.804.804 0 0 0-.576-.246H19.394a.804.804 0 0 0-.577.246.852.852 0 0 0-.239.594V24.1h1.63V5.187h10.746v18.914h1.63Z"/><path fill="#6CC6E4" d="M5.9 5.515c-.72 0-1.304.601-1.304 1.343v6.9c0 .742.584 1.343 1.304 1.343h6.056V5.515H5.9Z"/></svg>
